X: 27218
T: Miss Richard's
R: hornpipe
M: 4/4
K: Dmajor
|:AG|F2 A2 A2 Bc|d2 d2 d2 ef|gfed cdec|A2 AB AGFE|
F2 A2 A2 Bc|d2 d2 d2 ef|gfed cdec|d2 d2 d2:|
|:de|fdAd fdaf|g2 e2 e2 fg|fdAd fdgf|e2 A2 A2 de|
fdAd fdaf|g2 e2 e2 fg|afed cdec|d2 d2 d2:|

